X:151
T:Heaving of the Lead. JGi.151
M:C|
L:1/8
Q:1/4=100
S:Joshua Gibbons MS,1823,Tealby,Lincs.
N:Song words in Deacon “John Clare and the Folk Tradition” p.249
R:Air
C:W.H.H.Shield
O:Tealby,Lincolnshire
Z:VMP/R.Greig, 2009
K:G
G>A|B2B2A2(c>A)|G2F2G2zD|(GA) (Bc)d3d|(df)(ge){e}d2zd|
g3fe3d|(cB) (AG)F2zA|d2d2(Be) (fg)d2^c2~d2zd:|
|:g3g (gf2f)|(fe)e2d2zd|(dB) e c A d|(BG2)^cd4|
G/ >G/ A2G4|B/ >B/ c2HB3B|(Ae) (dc) (cB) (dB)|(Ae) (dc) (cB) (dB)|
|(cB) (AB) (cB) (ce)|(ed) (ef)Hg4|B3c(A2{c})G4:|

